X:10
T:Fife Hunt. RHu. 010
S:R.Hughes MS,1823,Whitchurch,Shrops.
A:Whitchurch, Shropshire
Z:Neil Brookes 2006
M:2/4
L:1/8
Q:1/2=80
K:F
c’|a>ffd|cAAA|Gggg|a3c’|affd|cBAG|Ffff|f3::!
g|afbg|c’agf|eggg|g3b|afbg|c’agf|cfff|f3:|

